!!!ONR: No. 4
!! From Harold Courlander, "Haiti Singing"
!! Chapel Hill: University of North Carolina Press, 1939
!! Copyright University of North Carolina Press
!!!ENC: D. Huron
**kern
*clefG2
*k[b-]
*M2/4
=1-
8r
4cc
[8dd
=2
8dd]
8cc
8cc
8cc
=3
8.cc
16a
16cc
[8.dd
=4
8dd]
8a
12cc
12cc
12a
=5
6dd
[6dd
12dd]
12dd
12b-
=6
4g
4g
=7
8cc
8ff
8ee
[8dd
=8
8dd]
8a
8a
8a
=9
4a
16f
16f
8f
=10
8f
8a
4cc
=11
8a
8a
8a
[8a
=12
8a]
8f
8g
8g
=13
2g
==
*-
